web/workspace/public/assets/products/dadi-publish-bg.svg

<svg viewBox="0 0 116.25 157.68" xmlns="http://www.w3.org/2000/svg"><g fill="#f1f1f1"><path d="m75.26 115.92 35.48-20.49a11 11 0 0 0 5.5-9.53v-41a11 11 0 0 0 -5.5-9.53l-58.74-33.9a11 11 0 0 0 -11 0l-35.5 20.53a11 11 0 0 0 -5.5 9.5v94.69a11 11 0 0 0 5.5 9.52l35.5 20.49a11 11 0 0 0 11 0l12.25-7.07a11 11 0 0 0 5.5-9.53v-14.14a11 11 0 0 1 5.51-9.54zm-28.74 16.61-23.25-13.42v-80.54l23.23-13.42 46.5 26.85v26.84l-46.5 26.85z"/><path d="m46.52 51.99v26.85l23.25-13.42z"/></g></svg>

<svg id="Layer_1" data-name="Layer 1" xmlns="http://www.w3.org/2000/svg" viewBox="0 0 116.25 157.68"><defs><style>.cls-1{fill:#f1f1f1;}</style></defs><title>Artboard 44</title><path class="cls-1" d="M75.26,115.92l35.48-20.49a11,11,0,0,0,5.5-9.53v-41a11,11,0,0,0-5.5-9.53L52,1.47a11,11,0,0,0-11,0L5.5,22A11,11,0,0,0,0,31.5l0,94.69a11,11,0,0,0,5.5,9.52L41,156.2a11,11,0,0,0,11,0l12.25-7.07a11,11,0,0,0,5.5-9.53V125.46A11,11,0,0,1,75.26,115.92ZM46.52,132.53,23.27,119.11l0-80.54L46.5,25.15,93,52V78.84h0L46.5,105.69h0Z"/><polygon class="cls-1" points="46.52 51.99 46.52 78.84 69.77 65.42 46.52 51.99"/></svg>
